assets/features/channel/southeast-asia/land-bank-philippines.svg

<svg width="80" height="80" viewBox="0 0 80 80" fill="none" xmlns="http://www.w3.org/2000/svg">
<rect width="80" height="80" rx="8" fill="#74BC44"/>
<path fill-rule="evenodd" clip-rule="evenodd" d="M37.2782 20.1455L37.9149 20.0728L38.5516 20L40.3615 20.0294L42.1714 20.0588L42.9906 20.1889L43.8099 20.3191L44.7183 20.5354L45.6267 20.7516L46.5728 21.0753L47.5189 21.399L48.6706 21.9545L49.8224 22.51L50.5632 22.9693L51.3041 23.4285L52.1114 24.043L52.9186 24.6575L53.6695 25.3459L54.4205 26.0343L55.1948 26.939L55.9691 27.8438L56.606 28.7953L57.2429 29.7469L57.6248 30.4474L58.0067 31.1478L58.3758 31.9915L58.7449 32.8352L59.0692 33.8351L59.3937 34.835L59.5995 35.8219L59.8054 36.8089L59.8909 37.5903L59.9763 38.3717L60.0284 39.2353L60.0805 40.0989L59.986 41.3715L59.8916 42.6439L59.6914 43.7278L59.4911 44.8116L59.2037 45.7597L58.9162 46.7079L58.661 47.3513L58.4057 47.9948L58.0481 48.7351L57.6904 49.4753L57.1966 50.3051L56.7028 51.1349L56.0927 51.9501L55.4825 52.7653L54.7969 53.5341L54.1114 54.3028L53.1598 55.1222L52.2082 55.9417L51.1108 56.6762L50.0133 57.4108L48.9307 57.9429L47.848 58.475L47.1075 58.755L46.3671 59.035L45.6267 59.245L44.8863 59.4551L44.1047 59.6194L43.3232 59.7837L42.5416 59.8918L41.7601 60L39.9502 59.9984L38.1402 59.9967L37.1942 59.8524L36.2481 59.708L35.3431 59.4948L34.4382 59.2817L33.5102 58.9628L32.5823 58.6438L31.8237 58.3034L31.0651 57.9629L30.3247 57.554L29.5843 57.1451L28.8439 56.6488L28.1035 56.1526L27.363 55.5581L26.6226 54.9638L25.6354 53.9467L24.6482 52.9297L24.0574 52.1483L23.4667 51.367L23.0006 50.6268L22.5345 49.8866L21.9677 48.7331L21.401 47.5795L20.9963 46.3479L20.5916 45.1161L20.4228 44.2936L20.254 43.4711L20.1269 42.5005L20 41.5299V40.0503V38.5708L20.0868 37.7722L20.1735 36.9734L20.3783 35.9453L20.583 34.9172L20.9932 33.6835L21.4035 32.4497L22.0082 31.216L22.6129 29.9823L23.2661 28.9953L23.9195 28.0083L24.5686 27.2269L25.2177 26.4455L25.838 25.8255L26.4581 25.2055L27.2113 24.5802L27.9646 23.955L28.8979 23.335L29.8311 22.7151L30.7772 22.2236L31.7233 21.732L32.6694 21.3573L33.6155 20.9825L34.6445 20.7007L35.6734 20.4188L36.4759 20.2822L37.2782 20.1455ZM39.4965 25.4717L38.9101 26.3484L38.5159 27.1373L38.1216 27.926L37.814 28.7074L37.5064 29.4888L37.2705 30.3935L37.0347 31.2982L36.9155 32.0796L36.7962 32.861L36.7456 33.6012L36.6951 34.3415L36.7798 35.3552L36.8645 36.3689L37.0341 37.2058L37.2036 38.0427L37.5402 39.0579L37.8767 40.0731L38.4208 41.1552L38.9647 42.2374L39.523 43.0804L40.0813 43.9235H40.1627H40.2441L40.8239 43.0393L41.4038 42.1551L41.9671 41.0036L42.5304 39.8522L42.8257 38.9514L43.1209 38.0507L43.2825 37.2653L43.444 36.4799L43.5416 35.3901L43.6391 34.3003L43.5416 33.2105L43.444 32.1207L43.2766 31.307L43.1093 30.4932L42.8588 29.7031L42.6082 28.913L42.2522 28.0905L41.8962 27.268L41.499 26.5524L41.1019 25.8368L40.6693 25.2158L40.2366 24.5949H40.1598H40.0829L39.4965 25.4717ZM29.4543 35.4468L29.5036 35.3671L29.5529 35.2873L29.5686 35.2876L29.5843 35.2877L30.363 35.4963L31.1417 35.7048L31.9225 36.0747L32.7034 36.4445L33.5297 36.9897L34.3559 37.5349L35.5488 38.7346L36.7417 39.9344L37.2274 40.6191L37.713 41.3039L38.2423 42.1819L38.7714 43.0599L39.2164 44.0057L39.6614 44.9516L39.8178 45.2395L39.9743 45.5274H40.1679H40.3615L41.1858 43.8824L42.0099 42.2374L42.3304 41.7439L42.651 41.2504L43.2267 40.4714L43.8023 39.6924L44.5911 38.8769L45.3799 38.0615L46.0913 37.5097L46.8027 36.9578L47.4681 36.5679L48.1335 36.1778L48.7988 35.8973L49.4641 35.6167L50.1094 35.4521L50.7548 35.2873H50.8109H50.8669L50.8094 35.8014L50.7519 36.3154L50.5948 37.0968L50.4378 37.8782L50.1843 38.6595L49.9308 39.4409L49.5652 40.2187L49.1997 40.9966L48.651 41.8226L48.1022 42.6486L47.2346 43.5122L46.3671 44.3759L45.6425 44.8858L44.918 45.3958L43.956 45.885L42.9941 46.3741L42.2125 46.6262L41.431 46.8782L41.0608 46.9841L40.6906 47.0901L40.6694 53.0326L40.6484 58.9751H40.1553H39.6622V53.0203V47.0653L39.2303 46.9633L38.7984 46.8613L37.9832 46.5792L37.168 46.2972L36.4201 45.9224L35.6722 45.5476L35.0552 45.136L34.4382 44.7244L33.7605 44.1563L33.0829 43.5881L32.6037 43.0314L32.1245 42.4748L31.7495 41.9448L31.3744 41.4149L31.0404 40.798L30.7063 40.1812L30.4502 39.5325L30.1941 38.8838L29.9886 38.1753L29.7831 37.4669L29.6187 36.4569L29.4543 35.4468ZM57.0209 47.4734L56.4039 47.7179L55.1699 48.0754L53.9358 48.433L52.7018 48.6842L51.4678 48.9356L50.5217 49.0569L49.5756 49.1783L48.3416 49.2767L47.1075 49.3751L44.804 49.3215L42.5005 49.268L42.0274 49.2175L41.5544 49.167V49.7475V50.3278L41.6984 50.3704L41.8423 50.4131L42.7062 50.5757L43.57 50.7383L44.6806 50.9047L45.7912 51.0712L46.9019 51.1971L48.0125 51.323L49.7158 51.4099L51.4192 51.4967L52.7936 51.41L54.1681 51.3233L54.7512 51.239L55.3344 51.1546L55.5221 51.0763L55.71 50.998L56.2037 50.2367L56.6974 49.4753L57.1784 48.5294L57.6593 47.5836L57.7159 47.3985L57.7724 47.2135L57.7051 47.2211L57.6379 47.2288L57.0209 47.4734ZM41.5955 52.0963L41.5703 51.7523L41.5449 51.4082H41.5945H41.6441L42.9361 51.7319L44.2281 52.0556L45.4385 52.3063L46.6489 52.5569L48.1122 52.7773L49.5756 52.9977L51.4266 53.0049L53.2777 53.012L53.7302 52.9497L54.1826 52.8873L53.3996 53.6488L52.6165 54.4103L51.8776 55.0046L51.1387 55.5989L51.0319 55.6009L50.9251 55.6029L49.6334 55.0589L48.3416 54.5149L46.9841 53.959L45.6267 53.4033L44.6806 53.0557L43.7345 52.7081L42.665 52.4022L41.5955 52.0963ZM41.5544 56.2311V58.9978L42.192 58.9416L42.8296 58.8854L43.8168 58.687L44.804 58.4886L45.5443 58.2739L46.2845 58.0592L47.1279 57.7296L47.9714 57.3999V57.3418V57.2836L47.5146 56.7336L47.0579 56.1834L46.3834 55.6429L45.709 55.1025L45.0895 54.7386L44.4701 54.3747L43.8555 54.1204L43.2409 53.8661L42.471 53.6653L41.7009 53.4644H41.6277H41.5544V56.2311ZM36.5401 53.535L37.3402 53.4259L38.1402 53.3168L38.4899 53.3084L38.8395 53.2999V56.1375V58.9751H38.5416H38.2437L37.3692 58.8454L36.4949 58.7158L35.4254 58.4416L34.3559 58.1676L33.4921 57.8429L32.6282 57.5184L31.8467 57.137L31.0651 56.7556L30.7959 56.5905L30.5265 56.4255L30.6619 56.2188L30.7974 56.0122L31.3139 55.6013L31.8304 55.1904L32.525 54.821L33.2195 54.4516L34.199 54.1311L35.1786 53.8106L35.8593 53.6728L36.5401 53.535ZM32.7516 50.2591L31.641 50.3168L30.9829 50.4169L30.3247 50.5169L29.502 50.71L28.6793 50.9031L27.9389 51.163L27.1985 51.4229L26.4375 51.7929L25.6765 52.1631V52.2883V52.4136L26.7666 53.5039L27.8567 54.5943L28.0782 54.7348L28.2997 54.8754L28.9062 54.5072L29.5127 54.1392L30.3641 53.7121L31.2155 53.2849L32.0382 52.9643L32.861 52.6438L33.7318 52.4015L34.6027 52.1593L35.2608 52.0305L35.919 51.9019L36.7005 51.821L37.4821 51.74L38.1608 51.7386L38.8395 51.7372V51.2492V50.7613L38.6956 50.7184L38.5516 50.6756L37.8523 50.5514L37.153 50.4272L36.3303 50.3457L35.5077 50.2642L34.685 50.2328L33.8623 50.2014L32.7516 50.2591ZM23.5741 45.9657L24.07 45.8953L24.5659 45.8249L25.7999 45.8552L27.034 45.8855L27.9389 46.0543L28.8439 46.2232L31.7644 47.0103L34.685 47.7973L35.8367 48.0907L36.9885 48.3839L37.8934 48.5646L38.7984 48.7453L38.8234 49.2245L38.8484 49.7036L38.8095 49.805L38.7707 49.9063L38.1263 49.792L37.4821 49.6776L34.5616 49.1715L31.641 48.6653L30.1602 48.6659L28.6793 48.6664L28.0623 48.8048L27.4453 48.9432L26.7483 49.1631L26.0514 49.3829L25.1158 49.8516L24.1802 50.3203L23.935 49.939L23.6898 49.5576L23.0884 48.3497L22.4871 47.1418L22.3592 46.7666L22.2314 46.3914L22.3722 46.316L22.5131 46.2406L23.0435 46.1032L23.5741 45.9657Z" fill="white"/>
</svg>

<svg xmlns="http://www.w3.org/2000/svg" width="80" height="80" fill="none" viewBox="0 0 80 80"><rect width="80" height="80" fill="#74bc44" rx="8"/><path fill="#fff" fill-rule="evenodd" d="m37.278 20.146.637-.073.637-.073 1.81.03 1.81.029.819.13.819.13.908.216.909.217.946.323.946.324 1.152.555 1.151.556.741.46.741.459.807.614.808.614.75.689.752.688.774.905.774.905.637.951.637.952.382.7.382.7.369.845.369.843.324 1 .325 1 .206.987.205.987.086.781.085.782.052.863.053.864-.095 1.273-.094 1.272-.2 1.084-.2 1.084-.288.948-.288.948-.255.643-.255.644-.358.74-.358.74-.493.83-.494.83-.61.815-.61.815-.686.77-.686.768-.951.82-.952.819-1.097.734-1.098.735-1.082.532-1.083.532-.74.28-.74.28-.741.21-.74.21-.782.164-.782.165-.781.108-.782.108-1.81-.002-1.81-.001-.946-.145-.946-.144-.905-.213-.905-.213-.928-.32-.928-.318-.758-.34-.759-.341-.74-.409-.74-.409-.741-.496-.74-.496-.741-.595-.74-.594-.988-1.017-.987-1.017-.59-.782-.591-.781-.466-.74-.466-.74-.567-1.154-.567-1.153-.405-1.232-.404-1.232-.17-.822-.168-.823-.127-.97L20 41.53v-2.96l.087-.798.087-.799.204-1.028.205-1.028.41-1.233.41-1.234.605-1.234.605-1.234.653-.987.654-.987.649-.781.649-.782.62-.62.62-.62.753-.625.754-.625.933-.62.933-.62.946-.491.946-.492.946-.375.947-.374 1.029-.282 1.028-.282.803-.137zm2.218 5.326-.586.876-.394.79-.394.788-.308.781-.308.782-.236.904-.235.905-.12.782-.119.781-.05.74-.05.74.084 1.014.084 1.014.17.837.17.837.336 1.015.337 1.015.544 1.082.544 1.082.558.843.558.843h.163l.58-.884.58-.884.563-1.151.563-1.152.296-.9.295-.901.161-.786.162-.785.098-1.09.097-1.09-.097-1.09-.098-1.09-.167-.813-.168-.814-.25-.79-.25-.79-.357-.823-.356-.822-.397-.716-.397-.715-.433-.621-.432-.621h-.154zm-10.042 9.975.05-.08.049-.08h.031l.779.21.779.208.78.37.781.37.827.545.826.545 1.193 1.2 1.193 1.2.485.684.486.685.53.878.528.878.445.946.445.946.157.288.156.287h.388l.824-1.645.824-1.645.32-.493.321-.494.576-.779.575-.779.79-.815.788-.816.711-.551.712-.552.665-.39.665-.39.666-.28.665-.281.645-.165.646-.165h.112l-.058.514-.057.514-.157.782-.157.781-.254.782-.253.78-.366.779-.365.778-.549.826-.549.826-.867.863-.868.864-.724.51-.725.51-.962.489-.962.49-.782.251-.781.252-.37.106-.37.106-.022 5.943-.02 5.942h-.987v-11.91l-.432-.102-.432-.102-.815-.282-.815-.282-.748-.375-.748-.374-.617-.412-.617-.412-.678-.568-.677-.568-.48-.557-.479-.556-.375-.53-.375-.53-.334-.617-.334-.617-.256-.648-.256-.65-.205-.708-.206-.708-.164-1.01zm27.567 12.026-.617.245-1.234.357-1.234.358-1.234.251-1.234.252-.946.12-.946.122-1.234.099-1.234.098-2.304-.053-2.303-.054-.474-.05-.473-.051v1.16l.144.043.144.043.864.163.864.162 1.11.167 1.111.166 1.11.126 1.111.126 1.704.087 1.703.087 1.375-.087 1.374-.087.583-.084.583-.084.188-.079.188-.078.494-.761.493-.762.481-.946.481-.945.057-.186.056-.184-.067.007-.067.008zm-15.425 4.623-.026-.344-.025-.344h.1l1.291.324 1.292.324 1.21.25 1.21.25 1.464.221 1.464.22 1.85.008 1.852.007.452-.062.453-.063-.783.762-.783.761-.74.595-.738.594-.107.002-.107.002-1.292-.544-1.291-.544-1.358-.556-1.357-.556-.946-.347-.947-.348-1.069-.306zm-.042 4.135v2.767l.638-.056.638-.057.987-.198.987-.198.74-.215.74-.215.844-.33.843-.33v-.115l-.456-.55-.457-.55-.675-.541-.674-.54-.62-.364-.619-.364-.614-.255-.615-.254-.77-.2-.77-.202h-.147zm-5.014-2.696.8-.11.8-.108.35-.009.35-.008v5.675h-.596l-.875-.13-.874-.13-1.07-.273-1.07-.274-.863-.325-.864-.325-.781-.381-.782-.381-.27-.166-.269-.165.136-.206.135-.207.517-.41.516-.412.695-.369.694-.37.98-.32.98-.32.68-.138zm-3.788-3.276-1.111.058-.658.1-.658.1-.823.193-.823.193-.74.26-.74.26-.762.37-.76.37v.251l1.09 1.09 1.09 1.09.221.14.222.141.606-.368.607-.368.851-.427.851-.427.823-.32.823-.321.87-.242.872-.243.658-.128.658-.13.782-.08.781-.081.679-.001.678-.002v-.976l-.143-.043-.144-.042-.7-.125-.699-.124-.823-.081-.822-.082-.823-.031-.823-.032zm-9.178-4.293.496-.07.496-.071 1.234.03 1.234.03.905.17.905.168 2.92.787 2.921.787 1.152.294 1.151.293.905.18.905.181.025.48.025.479-.038.101-.04.101-.644-.114-.644-.114-2.92-.506-2.921-.507h-1.48l-1.482.001-.617.139-.617.138-.697.22-.697.22-.935.469-.936.468-.245-.381-.245-.381-.602-1.208-.6-1.208-.129-.375-.128-.376.141-.075.141-.075.53-.138z" clip-rule="evenodd"/></svg>
